X: 27787
T: Morpeth Rant, The
R: reel
M: 4/4
K: Dmajor
|:ABc|d2AG FDFA|BGBd cAce|f3d gfed|c2e2 A2 (3ABc|
d2AG FDFA|BGBd cAce|f3d gfec|A2d2 d3:|
|:A|dfaf dfaf|gfef g2ef|gfed cdeg|fefg f3A|
dfaf dfaf|gfef g2ef|gfed caag|f2 d2 d3:|

